icons/star-16.svg

<svg xmlns="http://www.w3.org/2000/svg" width="16" height="16" viewBox="0 0 16 16"><path d="M8 .25a.75.75 0 01.673.418l1.882 3.815 4.21.612a.75.75 0 01.416 1.279l-3.046 2.97.719 4.192a.751.751 0 01-1.088.791L8 12.347l-3.766 1.98a.75.75 0 01-1.088-.79l.72-4.194L.818 6.374a.75.75 0 01.416-1.28l4.21-.611L7.327.668A.75.75 0 018 .25zm0 2.445L6.615 5.5a.75.75 0 01-.564.41l-3.097.45 2.24 2.184a.75.75 0 01.216.664l-.528 3.084 2.769-1.456a.75.75 0 01.698 0l2.77 1.456-.53-3.084a.75.75 0 01.216-.664l2.24-2.183-3.096-.45a.75.75 0 01-.564-.41L8 2.694z"/></svg>

<svg xmlns="http://www.w3.org/2000/svg" width="16" height="16" viewBox="0 0 16 16">
  <defs/>
  <path d="M8,0.25 C8.286,0.25 8.547,0.412 8.673,0.668 L10.555,4.483 L14.765,5.095 C15.047,5.136 15.282,5.334 15.37,5.605 C15.459,5.877 15.385,6.175 15.181,6.374 L12.135,9.344 L12.854,13.536 C12.902,13.817 12.787,14.102 12.556,14.27 C12.325,14.438 12.019,14.46 11.766,14.327 L8,12.347 L4.234,14.327 C3.981,14.46 3.676,14.437 3.445,14.27 C3.214,14.102 3.098,13.818 3.146,13.537 L3.866,9.343 L0.818,6.374 C0.613,6.175 0.539,5.876 0.628,5.605 C0.716,5.333 0.951,5.135 1.234,5.094 L5.444,4.483 L7.327,0.668 C7.453,0.412 7.714,0.25 8,0.25 Z M8,2.695 L6.615,5.5 C6.506,5.721 6.295,5.874 6.051,5.91 L2.954,6.36 L5.194,8.544 C5.371,8.716 5.452,8.965 5.41,9.208 L4.882,12.292 L7.651,10.836 C7.869,10.721 8.131,10.721 8.349,10.836 L11.119,12.292 L10.589,9.208 C10.547,8.965 10.628,8.716 10.805,8.544 L13.045,6.361 L9.949,5.911 C9.705,5.875 9.494,5.722 9.385,5.501 L8,2.694 Z"/>
</svg>
